dist/img/svg/whatsapp.svg

<svg width="19" height="18" viewBox="0 0 19 18" fill="none" xmlns="http://www.w3.org/2000/svg">
<path d="M9.5712 0.900024C14.0448 0.900024 17.6712 4.52639 17.6712 9.00002C17.6712 13.4736 14.0448 17.1 9.5712 17.1C8.13973 17.1025 6.73343 16.7236 5.4969 16.0025L1.47444 17.1L2.56956 13.0759C1.84782 11.839 1.4687 10.4321 1.4712 9.00002C1.4712 4.52639 5.09757 0.900024 9.5712 0.900024ZM6.81072 5.19302L6.64872 5.1995C6.54398 5.20672 6.44164 5.23423 6.3474 5.2805C6.25958 5.33033 6.17938 5.39252 6.10926 5.46518C6.01206 5.55671 5.95698 5.63609 5.89785 5.71304C5.59825 6.10257 5.43694 6.5808 5.43939 7.07222C5.44101 7.46912 5.54469 7.85549 5.70669 8.21675C6.03798 8.94737 6.58311 9.72092 7.30239 10.4378C7.47573 10.6103 7.64583 10.7836 7.82889 10.9448C8.72267 11.7317 9.78769 12.2991 10.9393 12.6021L11.3994 12.6726C11.5492 12.6807 11.6991 12.6693 11.8497 12.662C12.0856 12.6496 12.3159 12.5857 12.5245 12.4749C12.6304 12.4201 12.734 12.3607 12.8347 12.2967C12.8347 12.2967 12.869 12.2735 12.9359 12.2238C13.0453 12.1428 13.1125 12.0853 13.2032 11.9905C13.2713 11.9203 13.328 11.8388 13.3733 11.7459C13.4365 11.6139 13.4997 11.362 13.5256 11.1522C13.5451 10.9918 13.5394 10.9043 13.537 10.8501C13.5337 10.7634 13.4616 10.6735 13.3831 10.6354L12.9116 10.424C12.9116 10.424 12.2069 10.117 11.776 9.92099C11.7309 9.90135 11.6826 9.8901 11.6335 9.88778C11.578 9.88198 11.522 9.88816 11.4692 9.90591C11.4164 9.92366 11.368 9.95256 11.3273 9.99065C11.3232 9.98903 11.269 10.0352 10.6833 10.7448C10.6497 10.7899 10.6034 10.8241 10.5503 10.8428C10.4972 10.8616 10.4398 10.8641 10.3852 10.8501C10.3325 10.836 10.2808 10.8181 10.2305 10.7966C10.1301 10.7545 10.0953 10.7383 10.0264 10.7091C9.56138 10.5065 9.13092 10.2324 8.75067 9.89669C8.64861 9.80759 8.55384 9.71039 8.45664 9.61643C8.13799 9.31123 7.86028 8.96599 7.63044 8.58935L7.58265 8.5124C7.54884 8.46039 7.52112 8.40468 7.50003 8.34635C7.46925 8.22728 7.54944 8.1317 7.54944 8.1317C7.54944 8.1317 7.74627 7.91624 7.8378 7.7996C7.9269 7.6862 8.00223 7.57604 8.05083 7.49747C8.14641 7.34357 8.17638 7.18562 8.12616 7.06331C7.89936 6.50927 7.665 5.9582 7.42308 5.4101C7.37529 5.30156 7.23354 5.2238 7.10475 5.20841C7.06101 5.20301 7.01727 5.19869 6.97353 5.19545C6.86477 5.18921 6.75571 5.1903 6.6471 5.19869L6.81072 5.19302Z" fill="currentColor"/>
</svg>

<svg width="19" height="18" viewBox="0 0 19 18" fill="none" xmlns="http://www.w3.org/2000/svg"><path d="M9.571.9a8.1 8.1 0 110 16.2 8.06 8.06 0 01-4.074-1.098L1.474 17.1l1.096-4.024A8.1 8.1 0 019.572.9zm-2.76 4.293l-.162.006a.81.81 0 00-.302.082 1.09 1.09 0 00-.238.184c-.097.092-.152.171-.211.248-.3.39-.461.868-.459 1.36.002.396.106.782.268 1.144.331.73.876 1.504 1.595 2.22.174.173.344.347.527.508a7.654 7.654 0 003.11 1.657l.46.07c.15.009.3-.003.45-.01a1.62 1.62 0 00.675-.187c.106-.055.21-.114.31-.178l.102-.073c.11-.081.177-.139.267-.233a.94.94 0 00.17-.245c.064-.132.127-.384.153-.594.02-.16.013-.248.011-.302-.003-.087-.075-.176-.154-.215l-.471-.211s-.705-.307-1.136-.503a.405.405 0 00-.143-.033.389.389 0 00-.306.103c-.004-.002-.058.044-.644.754a.283.283 0 01-.298.105 1.15 1.15 0 01-.155-.053l-.204-.088a4.861 4.861 0 01-1.275-.812c-.102-.09-.197-.187-.294-.28a5.103 5.103 0 01-.827-1.028l-.047-.077a.81.81 0 01-.083-.166.26.26 0 01.05-.214s.196-.216.288-.332a3.46 3.46 0 00.213-.303c.095-.153.125-.311.075-.434a66.253 66.253 0 00-.703-1.653c-.048-.108-.19-.186-.318-.202a2.43 2.43 0 00-.458-.01l.164-.005z" fill="currentColor"/></svg>
